X:52
% %NRChange 2008-05-19
T: Napoleon (3 parts)
M: 4/4
Q: 1/4=70
L: 1/8
R: Bridal March
O: Swedish/Finnish
K: G %Transposed from D
V: 1 clef=treble
V: 2 clef=treble
V: 3 clef=bass middle=D,,
%%sysstaffsep 30
%P:A
[V:1] D |: B2-BA/G/ FG AF | G2 G>G G>A B/A/B/c/ |
[V:2] z |: G2-GF/E/ DE DC | B,2 C>A, B,>D G/F/G/A/ |
[V:3] z |: "G"G,,4 "D"D,,4 | "G  C"G,,4 "G"G,,2 A,,,2 |
[V:1] d2-dB cB/c/ d>c | B2 G>G G>B c/B/A/G/ | F>G FE FG  AF |
[V:2] B2-BD ED/E/ F>E | D2 B,>B, B,>D E/D/C/B,/ | A,>B, A,G, A,B, CA, |
[V:3] B,,,4 "Am"C,,2 "D"D,,2 |"G"B,,,4 "C"C,,2 E,,2 | "D"D,,3 E,, F,,4 |
[V:1] G2 B2 d3 B | ce cA G2 F/G//F//E/F/| G2 G>G G3 D:|
[V:2] B,2 D2 G3 ^E | EG EC B,2 A,/B,//A,//G,/A,/ | B,2 C>A, B,4:|
[V:3]  "G"G,,2 A,,,2 "G7"B,,,4| "C"C,,2 "Am"A,,,2 "G"D,,2 "D"D,,2 | "G"G,,4 G,,3 D,, :|
%P:B
[V:1] G>A B/A/B/c/ d3 d | de fg d3 B |
[V:2] B,>F G/F/G/A/ B3 B | Bc de B3 D |
[V:3] "G"G,,2A,,,2 B,,,4 | "C"C,,4 "G"B,,,3 D,, |
[V:1] c2 d>c B/c/4B/4A/B/ cB| A2 c>A GF EF | G>A B/A/B/c/ d3 d |
[V:2] E2 F>E D/E//D//C/D/ ED | C2 E>C B,A, CA, | B,>F G/F/G/A/ B3 B |
[V:3] "Am" E,,2 "D"F,,2 "G" G,,2-G,,/D,,/G,, | "Am"A,,,4 "D"D,,3 F,, | "G"G,,2 A,,,2 B,,,4 |
[V:1] de fg d3 B| ce cA G2 F/G//F//E/F/| G2 G>G G3 D|
[V:2] Bc de B2 G^E | EG EC B,2 A,/B,//A,//G,/A,/ | B,2 C>A, B,4 |
[V:3] "C"C,,4 "G"B,,,4 | "Am  C"A,,,4 "G"D,,2 "D"D,,2 | "G"G,,4 G,,3 F,, |
[V:1] G>A B/A/B/c/ d3 d | de fg d3 B | c2 d>c B/c/4B/4A/B/ cB|
[V:2] B,>F G/F/G/A/ B3 B | Bc de B3 D | E2 F>E D/E//D//C/D/ ED |
[V:3] "Em"E,,4 "Bm"D,,4 | "C"C,,4 "G"B,,,3 E,, | "Am"A,,,2 "D"F,,2 "G"G,,4 |
[V:1] A2 c>A GF EF | G>A B/A/B/c/ d3 d | de fg d3 B |
[V:2] C2 E>C B,A, CA, | B,>F G/F/G/A/ B3 B |  Bc de B2 G^E |
[V:3]"Am"A,,,4 "D"D,,3 F,, | "G"G,,2 A,,,2 B,,,4 | "C"C,,4 "G"B,,,4 |
[V:1] ce cA G2 F/G/4F/4E/F/| G2 G>G G4 |]
[V:2]  EG EC B,2 A,/B,//A,//G,/A,/ | B,2 C>A, B,4 |]
[V:3]  "Am  C"A,,,4 "G"D,,2 "D"D,,2 | "G"G,,4 G,,4 |]

